小程序/已拥有.svg

<svg width="12" height="15">
  <path fill="#000" fill-rule="evenodd" d="M9.3567497.83886719c.608727 0 1.1123027.20198365 1.5107422.60595703.3984395.40397337.5810548.91031597.5478515 1.51904297V14.2861328c0 .1438809-.0332028.2683914-.0996093.3735352-.0664066.1051437-.1494136.1964514-.2490235.2739258-.0774743.0332032-.1383461.0525715-.1826172.0581054-.044271.0055339-.1051428.0083008-.1826172.0083008-.0664065 0-.135579-.0138345-.2075195-.0415039-.0719405-.0276694-.1411129-.0636391-.2075195-.1079102l-4.53222658-3.2539062-4.53222656 3.2539062c-.11067764.0774744-.22965431.1272786-.3569336.1494141-.12727928.0221355-.24625595 3e-7-.35693359-.0664062-.11067764-.0774744-.19645152-.1687821-.25732422-.2739258-.0608727-.1051438-.09130859-.2296543-.09130859-.3735352V2.96386719c0-.608727.20198365-1.1150696.60595703-1.51904297.40397337-.40397338.91031597-.60595703 1.51904297-.60595703H9.3567497zm.7138672 12.10253911V2.96386719c0-.22135528-.0636387-.39566994-.190918-.52294922C9.7524196 2.31363869 9.578105 2.25 9.3567497 2.25H2.28448406c-.22135528 0-.39566994.06363869-.52294922.19091797s-.19091797.30159394-.19091797.52294922v9.97753911l3.81835938-2.7558594c.07747434-.0332033.15218062-.0664061.22412109-.0996094.07194046-.0332033.14111295-.0498047.20751953-.0498047.06640658 0 .13557907.0166014.20751953.0498047.07194047.0332033.14664675.0664061.2241211.0996094l3.8183594 2.7558594z"/>
</svg>

<?xml version="1.0" encoding="UTF-8"?>
<svg width="12px" height="15px" viewBox="0 0 12 15" version="1.1" xmlns="http://www.w3.org/2000/svg" xmlns:xlink="http://www.w3.org/1999/xlink">
    <!-- Generator: Sketch 50 (54983) - http://www.bohemiancoding.com/sketch -->
    <title>已拥有</title>
    <desc>Created with Sketch.</desc>
    <defs></defs>
    <g id="Page-1" stroke="none" stroke-width="1" fill="none" fill-rule="evenodd">
        <g id="已拥有" fill="#000000">
            <path d="M9.3567497,0.83886719 C9.9654767,0.83886719 10.4690524,1.04085084 10.8674919,1.44482422 C11.2659314,1.84879759 11.4485467,2.35514019 11.4153434,2.96386719 L11.4153434,14.2861328 C11.4153434,14.4300137 11.3821406,14.5545242 11.3157341,14.659668 C11.2493275,14.7648117 11.1663205,14.8561194 11.0667106,14.9335938 C10.9892363,14.966797 10.9283645,14.9861653 10.8840934,14.9916992 C10.8398224,14.9972331 10.7789506,15 10.7014762,15 C10.6350697,15 10.5658972,14.9861655 10.4939567,14.9584961 C10.4220162,14.9308267 10.3528438,14.894857 10.2864372,14.8505859 L5.75421062,11.5966797 L1.22198406,14.8505859 C1.11130642,14.9280603 0.99232975,14.9778645 0.86505046,15 C0.73777118,15.0221355 0.61879451,15.0000003 0.50811687,14.9335938 C0.39743923,14.8561194 0.31166535,14.7648117 0.25079265,14.659668 C0.18991995,14.5545242 0.15948406,14.4300137 0.15948406,14.2861328 L0.15948406,2.96386719 C0.15948406,2.35514019 0.36146771,1.84879759 0.76544109,1.44482422 C1.16941446,1.04085084 1.67575706,0.83886719 2.28448406,0.83886719 L9.3567497,0.83886719 Z M10.0706169,12.9414063 L10.0706169,2.96386719 C10.0706169,2.74251191 10.0069782,2.56819725 9.8796989,2.44091797 C9.7524196,2.31363869 9.578105,2.25 9.3567497,2.25 L2.28448406,2.25 C2.06312878,2.25 1.88881412,2.31363869 1.76153484,2.44091797 C1.63425556,2.56819725 1.57061687,2.74251191 1.57061687,2.96386719 L1.57061687,12.9414063 L5.38897625,10.1855469 C5.46645059,10.1523436 5.54115687,10.1191408 5.61309734,10.0859375 C5.6850378,10.0527342 5.75421029,10.0361328 5.82061687,10.0361328 C5.88702345,10.0361328 5.95619594,10.0527342 6.0281364,10.0859375 C6.10007687,10.1191408 6.17478315,10.1523436 6.2522575,10.1855469 L10.0706169,12.9414063 Z" id="Shape"></path>
        </g>
    </g>
</svg>
